X: 17247
T: Herbert Smith's
R: polka
M: 2/4
K: Gmajor
|:d/c/|Bd Bd|B/B/B/B/ Bd|Bd Bd|c/c/c/c/ ce|
ce ce|f/f/f/f/ fg|1 ag fe|d/d/d/d/ d:|2 ag fa|g2- g||
K: D Major
|:z|AB/c/ de|fg a2|a2 e>g|fe d2|
AB/c/ de|fg a2|a2 e>g|1 f2 d2:|2 f2 d||
K: G Major
|:e/f/|gB gB|d/d/d/d/ dB|dB dB|c/c/c/c/ cf|
a/a/a/a/ ag|f/f/f/f/ fe|1 dd/d/ ed|B2 d:|2 dd/d/ ef|g2- g||

